img/socials/youtube.svg

<svg width="20" height="14" viewBox="0 0 20 14" fill="none" xmlns="http://www.w3.org/2000/svg">
<path fill-rule="evenodd" clip-rule="evenodd" d="M17.0845 1.15583C17.8647 1.36994 18.4792 2.00079 18.6877 2.80192C19.0667 4.25388 19.0667 7.28339 19.0667 7.28339C19.0667 7.28339 19.0667 10.3128 18.6877 11.7649C18.4792 12.566 17.8647 13.1968 17.0845 13.4111C15.6705 13.8001 10 13.8001 10 13.8001C10 13.8001 4.32954 13.8001 2.91545 13.4111C2.1352 13.1968 1.52073 12.566 1.31219 11.7649C0.93335 10.3128 0.93335 7.28339 0.93335 7.28339C0.93335 7.28339 0.93335 4.25388 1.31219 2.80192C1.52073 2.00079 2.1352 1.36994 2.91545 1.15583C4.32954 0.766724 10 0.766724 10 0.766724C10 0.766724 15.6705 0.766724 17.0845 1.15583ZM8.30003 4.73333V10.4L12.8334 7.56677L8.30003 4.73333Z" fill="white"/>
</svg>

<svg width="20" height="14" fill="none" xmlns="http://www.w3.org/2000/svg"><path fill-rule="evenodd" clip-rule="evenodd" d="M17.084 1.156c.78.214 1.395.845 1.604 1.646.379 1.452.379 4.481.379 4.481s0 3.03-.38 4.482a2.303 2.303 0 0 1-1.603 1.646c-1.413.39-7.084.39-7.084.39s-5.67 0-7.085-.39a2.303 2.303 0 0 1-1.603-1.646C.933 10.313.933 7.283.933 7.283s0-3.03.38-4.481a2.302 2.302 0 0 1 1.602-1.646C4.33.766 10 .766 10 .766s5.67 0 7.084.39ZM8.3 4.733V10.4l4.533-2.833L8.3 4.733Z" fill="#fff"/></svg>
